!!!!SEGMENT: pl-gd--ee-1638--002-035_marenzio-luca--motettorum-pro-festis-totius-anni-in-festo-apostolorum-estote-fortes-in-bello.krn
!!!cenid: 15xx:1038
!!!COM: Marenzio, Luca
!!!COM-rismID: pe30003955
!!!CDT: ~1553-1599/08/22
!!!CNT: Italian
!!!GTL: Motettorum pro festis totius anni
!!!OTL: In festo Apostolorum/Estote fortes in bello
!!!OMV: 035
!!!PDT: 1588
!!!AGN:
!!!YEC: Copyright 2022 Narodowy Instytut Fryderyka Chopina (https://polishscores.org)
!!!YEM: License CC-BY-4.0 (https://creativecommons.org/licenses/by/4.0)
!!!SMS-siglum: PL-GD
!!!SMS-shelfmark: Ee 1638
!!!SMS-variant:
!!!SMS-altvar:
!!!SMS-shelfwork: 002-035 G
!!!NIFC-rismSourceID: 1001202747
!!!NIFC-rismChildID: 990039238
!!!NIFC-islandoraID: pl-gd:57883
!!!URL-pdf-islandora: https://repozytorium.nifc.pl/islandora/object/pl-gd%3A57883/datastream/PDF/view
!!!URL-scan: https://polish.musicsources.pl/pl/lokalizacje/galeria/klocki-introligatorskie/655 @EN{Scan on Polish Music Sources Website} @PL{Skany w portalu Dziedzictwo Muzyki Polskiej w otwartym dostępie}
!!!IIIF: https://repozytorium.nifc.pl/islandora/object/pl-gd%3A57883/datastream/IIIF/view
!!!ONB-nifc: UWAGA: Cantus: s. 633 (od ostatniego systemu po lewej), Altus: s. 481, Tenor: s. 329, Bassus: s. 177
!!!AIN: 1 alto 1 bass 1 soprn 1 tenor
!!!key: F
**kern	**text	**kern	**text	**kern	**text	**kern	**text
*part4	*part4	*part3	*part3	*part2	*part2	*part1	*part1
*staff4	*staff4	*staff3	*staff3	*staff2	*staff2	*staff1	*staff1
*ICvox	*	*ICvox	*	*ICvox	*	*ICvox	*
*Ibass	*	*Itenor	*	*Ialto	*	*Isoprn	*
*I"BASSVS	*	*I"TENOR	*	*I"ALTVS	*	*I"CANTVS	*
*mI"Basso	*	*mI"Tenore	*	*mI"Alto	*	*mI"Soprano	*
*I'B	*	*I'T	*	*I'A	*	*I'S	*
*clefF4	*	*clefC4	*	*clefC3	*	*clefC1	*
*	*	*mclefGv2	*	*mclefGv2	*	*mclefG2	*
*k[b-]	*	*k[b-]	*	*k[b-]	*	*k[b-]	*
*F:	*	*F:	*	*F:	*	*F:	*
*M2/1	*	*M2/1	*	*M2/1	*	*M2/1	*
*met(C|)	*	*met(C|)	*	*met(C|)	*	*met(C|)	*
*mmet(c|)	*	*mmet(c|)	*	*mmet(c|)	*	*mmet(c|)	*
=1-	=1-	=1-	=1-	=1-	=1-	=1-	=1-
*xywh-#177:1161,4440,3371,880	*	*xywh-#329:970,4341,3450,937	*	*xywh-#481:990,4334,3464,948	*	*xywh-#633:1025,4363,3431,923	*
!LO:TX:t=P:problem=przy kluczu BB- B-	!	!	!	!	!	!	!
0r	.	0r	.	1c	E-	1r	.
!	!	!	!	!	!LO:SIC:s=-sto-	!	!
.	.	.	.	2d\	-Sto-	1f	E-
.	.	.	.	2d\	-te	.	.
=2-	=2-	=2-	=2-	=2-	=2-	=2-	=2-
!	!	!	!	!	!	!	!LO:SIC:s=-sto-
1r	.	1F	E-	1f	for-	2a\	-Sto-
.	.	.	.	.	.	2a\	-te
!	!	!	!LO:SIC:s=-sto-	!	!	!	!
1F	E-	2A/	-Sto-	1c	-tes	1cc	for-
.	.	2A/	-te	.	.	.	.
=3-	=3-	=3-	=3-	=3-	=3-	=3-	=3-
!	!LO:SIC:s=-sto-	!	!	!	!	!	!
1F	-Sto-	1c	for-	2r	.	1a	-tes
.	.	.	.	2c/	in	.	.
1F	-te	1c	-tes	4A/	bel-	2r	.
.	.	.	.	4G/	.	.	.
.	.	.	.	4A/	.	2cc\	in
.	.	.	.	4B-/	.	.	.
=4-	=4-	=4-	=4-	=4-	=4-	=4-	=4-
1F	for-	2r	.	2c/	.	4a\	bel-
.	.	.	.	.	.	4g\	.
.	.	2c\	in	2F/	-lo	4a\	.
.	.	.	.	.	.	4b-\	.
1F	-tes	4A/	bel-	2r	.	2cc\	.
.	.	4G/	.	.	.	.	.
*	*	*	*	*	*ij	*	*
.	.	4A/	.	2c/	in	2f/	-lo
.	.	4B-\	.	.	.	.	.
=5-	=5-	=5-	=5-	=5-	=5-	=5-	=5-
1F	in	2c\	.	4A/	bel-	2r	.
.	.	.	.	4G/	.	.	.
*	*	*	*	*	*	*	*ij
.	.	2F/	-lo	4A/	.	2cc\	in
.	.	.	.	4B-/	.	.	.
1F	bel-	2r	.	2c/	.	4a\	bel-
.	.	.	.	.	.	4b-\	.
*	*	*	*ij	*	*	*	*
.	.	2c\	in	2F/	-lo	4cc\	.
*	*	*	*	*	*Xij	*	*
.	.	.	.	.	.	4a\	.
=6-	=6-	=6-	=6-	=6-	=6-	=6-	=6-
0BB-	-lo	4d\	bel-	2r	.	0b-	.
.	.	4c\	.	.	.	.	.
.	.	4d\	.	2f\	in	.	.
.	.	4e\	.	.	.	.	.
*	*	*	*	*custos:d	*	*	*
*	*	*	*	*xywh-#481:4470,525,3440,916	*	*	*
!	!	!	!	!LO:PB:g=original	!	!	!
!	!	!	!	!LO:TX:a:i:mod= :t=In festo Apostorolum	!	!	!
.	.	1f	.	4d\	bel-	.	.
.	.	.	.	4c\	.	.	.
.	.	.	.	4d\	.	.	.
.	.	.	.	4e\	.	.	.
=7-	=7-	=7-	=7-	=7-	=7-	=7-	=7-
2r	.	2F/	-lo	2f\	.	1a	-lo
*	*	*	*Xij	*	*	*	*Xij
2F\	in	2A/	in	2c/	-lo	.	.
!	!	!	!	!	!LO:SIC:s=e-	!	!LO:SIC:s=e-
4D/	bel-	4F/	bel-	1f	E-	1a	E-
4C/	.	4E/	.	.	.	.	.
4D/	.	4F/	.	.	.	.	.
4E\	.	4G/	.	.	.	.	.
*	*	*custos:A	*	*	*	*	*
!	!	!LO:PB:g=original	!	!	!	!	!
=8-	=8-	=8-	=8-	=8-	=8-	=8-	=8-
*	*	*xywh-#329:4497,530,3465,814	*	*	*	*	*
2F\	.	2A/	.	1f	-ſto-	1a	-ſto-
2D/	-lo	1F/	-lo	.	.	.	.
*	*	*	*	*	*	*custos:a	*
*	*	*	*	*	*	*xywh-#633:4542,512,3361,877	*
!	!	!	!	!	!	!LO:TX:a:i:mod= :t=In festo Apostorolum	!
!	!	!	!	!	!	!LO:PB:g=original	!
2A\	in	.	.	1f	-te	1a	-te
!	!	!LO:TX:a:i:mod= :t=In festo Apostolorum	!	!	!	!	!
4F\	bel-	1c\	in	.	.	.	.
4E\	.	.	.	.	.	.	.
=9-	=9-	=9-	=9-	=9-	=9-	=9-	=9-
4F\	.	.	.	1f	for-	1a	for-
4G\	.	.	.	.	.	.	.
2A\	.	4F/	bel-	.	.	.	.
.	.	4G/	.	.	.	.	.
*custos:F	*	*	*	*	*	*	*
*xywh-#177:4564,550,3473,856	*	*	*	*	*	*	*
!LO:PB:g=original	!	!	!	!	!	!	!
!LO:TX:a:i:mod= :t=In festo Apostolorum	!	!	!	!	!	!	!
2F\	lo	4A/	.	1f	-tes	1a	-tes
.	.	4B-\	.	.	.	.	.
2F\	in	2c\	.	.	.	.	.
=10-	=10-	=10-	=10-	=10-	=10-	=10-	=10-
4D/	bel-	2d\	-lo	1f	in	1a	i
4C/	.	.	.	.	.	.	.
4D/	.	2d\	in	.	.	.	.
4E\	.	.	.	.	.	.	.
1F	.	4c\	bel-	1f	bel-	1a	bel-
.	.	4B-\	.	.	.	.	.
.	.	4A/	.	.	.	.	.
.	.	4B-\	.	.	.	.	.
=11-	=11-	=11-	=11-	=11-	=11-	=11-	=11-
1C	-lo	2c\	.	1e	-lo	1g	-lo
.	.	2G/	-lo	.	.	.	.
*	*	*	*Xij	*	*	*	*
1r	.	1r	.	2c/	et	2.cc\	et
.	.	.	.	2e\	pu-	.	.
.	.	.	.	.	.	4b-\	pu-
=12-	=12-	=12-	=12-	=12-	=12-	=12-	=12-
2r	.	2r	.	2f\	-gna-	2a\	-gna-
2C/	et	2.c\	et	2e\	-te	2g/	-te
2E\	pu-	.	.	2r	.	2r	.
.	.	4B-\	pu-	.	.	.	.
2F\	-gna-	2A/	-gna-	2c/	et	2.cc\	et
=13-	=13-	=13-	=13-	=13-	=13-	=13-	=13-
2C/	-te	2G/	-te	2e\	-pu-	.	.
.	.	.	.	.	.	4b-\	-pu-
*	*ij	*	*ij	*	*	*	*
2FF/	et	2.c\	et	2f\	-gna-	2a\	-gna-
2C/	pu-	.	.	2e\	-te	2g/	-te
.	.	4B-\	pu-	.	.	.	.
*	*	*	*	*	*ij	*	*ij
2FF/	-gna-	2A/	-gna-	2c/	et	2.cc\	et
*	*	*custos:E	*	*	*	*	*
!	!	!LO:LB:g=original	!	!	!	!	!
=14-	=14-	=14-	=14-	=14-	=14-	=14-	=14-
*	*	*xywh-#329:4504,1229,3457,691	*	*	*	*	*
2C/	-te	2E/	-te	2g\	pu-	.	.
.	.	.	.	.	.	4b-\	pu-
2F\	et	2.c\	et	2f\	-gna-	2a\	-gna-
*	*	*	*	*custos:c	*	*	*
*	*	*	*	*xywh-#481:4501,1246,3409,697	*	*	*
!	!	!	!	!LO:LB:g=original	!	!	!
2E\	pu-	.	.	2.c/	-te	2g/	-te
*	*	*	*	*	*Xij	*	*Xij
.	.	4B-\	pu-	.	.	.	.
!	!	!	!	!	!	!	!LO:SIC:s=cum
2F\	-gna-	2A/	-gna-	.	.	1cc\	cu(m)
.	.	.	.	4d\	.	.	.
=15-	=15-	=15-	=15-	=15-	=15-	=15-	=15-
1C	-te	1G	-te	1e	.	.	.
*	*Xij	*	*Xij	*	*	*	*
.	.	.	.	.	.	2cc\	an-
!	!LO:SIC:s=cum	!	!LO:SIC:s=cum	!	!	!	!
2F\	cu(m)	2A/	cu(m)	2r	.	4cc\	-ti-
.	.	.	.	.	.	4b-\	.
!	!	!	!	!	!LO:SIC:s=cum	!	!
2F\	an-	1c\	an-	1f\	cu(m)	4a\	.
.	.	.	.	.	.	4g/	.
*custos:F	*	*	*	*	*	*	*
!LO:LB:g=original	!	!	!	!	!	!	!
=16-	=16-	=16-	=16-	=16-	=16-	=16-	=16-
*xywh-#177:4557,1179,3465,762	*	*	*	*	*	*	*
4F\	-ti-	.	.	.	.	1a	.
4E\	.	.	.	.	.	.	.
4D/	.	2.d\	-ti-	2f\	an-	.	.
4C/	.	.	.	.	.	.	.
1BB-	.	.	.	4f\	-ti-	2b-\	-quo
.	.	4c\	.	4e\	.	.	.
.	.	4B-\	.	4d\	.	2f/	ſer-
.	.	4A\	.	4c\	.	.	.
=17-	=17-	=17-	=17-	=17-	=17-	=17-	=17-
2BB-/	-quo	1B-	.	1d	.	2.g/	-pen-
2C/	ſer-	.	.	.	.	.	.
.	.	.	.	.	.	8f/	.
.	.	.	.	.	.	8e/	.
*	*	*	*	*	*	*custos:f	*
*	*	*	*	*	*	*xywh-#633:4519,1218,3439,722	*
!	!	!	!	!	!	!LO:LB:g=original	!
2.D/	-pen-	2A/	-quo	1d	-quo	2.f/	.
.	.	2B-\	ſer-	.	.	.	.
8C/	.	.	.	.	.	8e/	.
8BB-/	.	.	.	.	.	8d/	.
=18-	=18-	=18-	=18-	=18-	=18-	=18-	=18-
2.AA/	.	2.c\	-pen-	2r	.	4e/	.
.	.	.	.	.	.	4c/	.
.	.	.	.	2c/	ſer-	2.f/	.
4BB-/	.	8B-\	.	.	.	.	.
.	.	8A\	.	.	.	.	.
1C	.	1G	.	1c	-pen-	.	.
.	.	.	.	.	.	8e/	.
.	.	.	.	.	.	8d/	.
.	.	.	.	.	.	2e/	.
=19-	=19-	=19-	=19-	=19-	=19-	=19-	=19-
2FF/	-te	0F	-te	1c	-te	0f	te
!	!LO:SIC:s=e-	!	!	!	!	!	!
2F\	E-	.	.	.	.	.	.
2A\	-ſto-	.	.	2r	.	.	.
!	!	!	!	!	!LO:SIC:s=e-	!	!
2A\	-te	.	.	2c/	E-	.	.
=20-	=20-	=20-	=20-	=20-	=20-	=20-	=20-
1B-	for-	1r	.	2d\	-ſto-	2r	.
!	!	!	!	!	!	!	!LO:SIC:s=e-
.	.	.	.	2d\	-te	2f/	E-
0F	-tes	2r	.	1f	for-	2a\	-ſto-
!	!	!	!LO:SIC:s=e-	!	!	!	!
.	.	2F/	E-	.	.	2a\	-te
=21-	=21-	=21-	=21-	=21-	=21-	=21-	=21-
.	.	2A/	-ſto-	2c/	-tes	1.cc	for-
.	.	2A/	-te	2f\	in	.	.
!	!LO:SIC:s=e-	!	!	!	!	!	!
1C	E-	1c	for-	4e\	bel-	.	.
.	.	.	.	4d\	.	.	.
.	.	.	.	4e\	.	1g\	-tes
.	.	.	.	4f\	.	.	.
*	*	*custos:G	*	*	*	*	*
!	!	!LO:LB:g=original	!	!	!	!	!
=22-	=22-	=22-	=22-	=22-	=22-	=22-	=22-
*	*	*xywh-#329:4497,1729,3526,691	*	*	*	*	*
2E\	-ſto-	2G/	-tes	0g	.	.	.
2E\	-te	2.c\	in	.	.	2e/	in
1G	for-	.	.	.	.	1d	bel-
!	!	!LO:SIC:s=8Bi	!	!	!	!	!
.	.	8B-\	.	.	.	.	.
.	.	8A\	.	.	.	.	.
!	!	!LO:N:acc=#	!	!	!	!	!
.	.	2Bn\	.	.	.	.	.
=23-	=23-	=23-	=23-	=23-	=23-	=23-	=23-
2C/	-tes	1c	bel-	1g	-lo	2e/	-lo
2C/	in	.	.	.	.	2e/	in
*custos:F	*	*	*	*	*	*	*
*xywh-#177:4557,1745,3489,715	*	*	*	*	*	*	*
!LO:LB:g=original	!	!	!	!	!	!	!
4F\	bel-	2c\	-lo	2r	.	4a\	bel-
4E\	.	.	.	.	.	4g/	.
4F\	.	2A/	in	1c\	in	4a\	.
4G\	.	.	.	.	.	4b-\	.
=24-	=24-	=24-	=24-	=24-	=24-	=24-	=24-
2A\	.	4F/	bel-	.	.	2cc\	.
.	.	4E/	.	.	.	.	.
2D/	-lo	4F/	.	2d\	bel-	1a\	-lo
.	.	4G/	.	.	.	.	.
*	*	*	*	*custos:c	*	*	*
*	*	*	*	*xywh-#481:4509,1802,3385,721	*	*	*
!	!	!	!	!LO:LB:g=original	!	!	!
2F\	in	2A/	.	2c/	-lo	.	.
*	*	*	*	*	*ij	*	*
4A\	bel-	2F/	-lo	2f\	in	2cc\	in
4G\	.	.	.	.	.	.	.
*	*	*	*	*	*	*custos:a	*
!	!	!	!	!	!	!LO:LB:g=original	!
=25-	=25-	=25-	=25-	=25-	=25-	=25-	=25-
*	*	*	*	*	*	*xywh-#633:4589,1762,3315,652	*
4A\	.	2c\	in	1e	bel-	4a\	bel-
4B-\	.	.	.	.	.	4g\	.
2c\	.	4A/	bel-	.	.	4a\	.
.	.	4G/	.	.	.	4b-\	.
1F	lo	4A/	.	1c	-lo	4cc\	.
*	*	*	*	*	*Xij	*	*
.	.	4B-\	.	.	.	4b-\	.
.	.	1c\	.	.	.	2a\	.
=26-	=26-	=26-	=26-	=26-	=26-	=26-	=26-
2F\	et	.	.	2.f\	et	1a	-lo
2A\	pu-	2F/	lo	.	.	.	.
.	.	.	.	4e\	pu-	.	.
2B-\	-gna-	2B-\	et	2d\	-gna-	2.f/	et
2F\	-te	2A/	pu-	2c/	-te	.	.
.	.	.	.	.	.	4e/	pu-
=27-	=27-	=27-	=27-	=27-	=27-	=27-	=27-
2BB-/	et	2B-\	-gna-	2.f\	et	2d/	-gna-
2AA/	pu-	2.F/	-te	.	.	2c/	-te
.	.	.	.	4e\	pu-	.	.
2BB-/	-gna-	.	.	2d\	-gna-	2.f/	et
.	.	4G/	.	.	.	.	.
2FF/	-te	2A/	.	2c/	-te	.	.
.	.	.	.	.	.	4g/	pu-
*	*	*custos:c	*	*	*	*	*
!	!	!LO:LB:g=original	!	!	!	!	!
=28-	=28-	=28-	=28-	=28-	=28-	=28-	=28-
*	*	*xywh-#329:4489,2251,3557,737	*	*	*	*	*
2F\	et	2.c\	et	1r	.	2a\	-gna-
2E\	pu-	.	.	.	.	2g/	-te
.	.	4B-\	pu-	.	.	.	.
2F\	-gna-	2A/	-gna-	2c/	et	2.cc\	et
2C/	-te	2G/	-te	2e\	pu-	.	.
.	.	.	.	.	.	4b-\	pu-
*custos:FF	*	*	*	*	*	*	*
!LO:LB:g=original	!	!	!	!	!	!	!
=29-	=29-	=29-	=29-	=29-	=29-	=29-	=29-
*xywh-#177:4580,2303,3387,723	*	*	*	*	*	*	*
2FF/	et	2.c\	et	2f\	-gna-	2a\	-gna-
2C/	pu-	.	.	2e\	-te	2g/	-te
.	.	4B-\	pu-	.	.	.	.
*	*	*	*	*	*ij	*	*
!	!	!	!	!	!	!	!LO:SIC:s=cum
2FF/	-gna-	2A/	-gna-	2c/	et	2cc\	cu(m)
2C/	-te	2G/	-te	2e\	pu-	2cc\	an-
=30-	=30-	=30-	=30-	=30-	=30-	=30-	=30-
!	!	!	!LO:SIC:s=cum	!	!	!	!
2F\	cum	1A	cu(m)	2f\	-gna-	4cc\	-ti-
.	.	.	.	.	.	4b-\	.
2F\	an-	.	.	2c/	-te	4a\	.
*	*	*	*	*	*Xij	*	*
.	.	.	.	.	.	4g\	.
4F\	-ti-	2c\	an-	2f\	cum	1a	.
4E\	.	.	.	.	.	.	.
4D/	.	2.d\	-ti-	2f\	an-	.	.
4C/	.	.	.	.	.	.	.
*	*	*	*	*custos:f	*	*custos:b	*
!	!	!	!	!LO:LB:g=original	!	!LO:LB:g=original	!
=31-	=31-	=31-	=31-	=31-	=31-	=31-	=31-
*	*	*	*	*xywh-#481:4470,2319,3511,705	*	*xywh-#633:4558,2274,3408,706	*
1BB-	.	.	.	4f\	-ti-	2b-\	-quo
.	.	4c\	.	4e\	.	.	.
.	.	4B-\	.	4d\	.	2f/	ſer-
.	.	4A/	.	4c/	.	.	.
2BB-/	-quo	1B-	.	1d	.	2.g/	-pen-
2C/	ſer-	.	.	.	.	.	.
.	.	.	.	.	.	8f/	.
.	.	.	.	.	.	8e/	.
=32-	=32-	=32-	=32-	=32-	=32-	=32-	=32-
2.D/	-pen-	2A/	-quo	1d	-quo	2.f/	.
.	.	2B-\	ſer-	.	.	.	.
8C/	.	.	.	.	.	8e/	.
8BB-/	.	.	.	.	.	8d/	.
2.AA/	.	2.c\	-pen-	2r	.	2.e/	.
.	.	.	.	2c/	ſer-	.	.
4BB-/	.	8B-\	.	.	.	4d/	.
.	.	8A\	.	.	.	.	.
=33-	=33-	=33-	=33-	=33-	=33-	=33-	=33-
0C	.	4G/	.	0c	-pen-	4e/	.
.	.	4E/	.	.	.	4c/	.
.	.	4A/	.	.	.	2.f/	.
.	.	8G/	.	.	.	.	.
.	.	8F/	.	.	.	.	.
.	.	1G	.	.	.	.	.
.	.	.	.	.	.	8e/	.
.	.	.	.	.	.	8d/	.
.	.	.	.	.	.	2e/	.
=34-	=34-	=34-	=34-	=34-	=34-	=34-	=34-
1FF	-te	1F	-te	0.c	-te	0.f	te
2.F\	et	2.A/	et	.	.	.	.
4F\	ac-	4A/	ac-	.	.	.	.
*	*	*custos:A	*	*	*	*	*
!	!	!LO:LB:g=original	!	!	!	!	!
=35-	=35-	=35-	=35-	=35-	=35-	=35-	=35-
*	*	*xywh-#329:4512,2820,3526,653	*	*	*	*	*
2F\	-ci-	2A/	-ci-	.	.	.	.
2F\	-pi-	2A/	-pi-	.	.	.	.
*custos:G	*	*	*	*	*	*	*
*xywh-#177:4533,2790,3544,801	*	*	*	*	*	*	*
!LO:LB:g=original	!	!	!	!	!	!	!
1G	-e-	1B-	-e-	1r	.	1r	.
=36-	=36-	=36-	=36-	=36-	=36-	=36-	=36-
2A\	-tis	1F	-tis	2.c/	et	2.a\	et
2.A\	re-	.	.	.	.	.	.
.	.	.	.	4c/	ac-	4a\	ac-
.	.	0F	re-	2c/	-ci-	2a\	-ci-
4G\	.	.	.	.	.	.	.
4F\	.	.	.	2c/	-pi-	2a\	-pi-
4E\	.	.	.	.	.	.	.
=37-	=37-	=37-	=37-	=37-	=37-	=37-	=37-
1D	.	.	.	1d	-e-	1b-	-e-
!	!LO:SIC:s=-gnum	!	!LO:SIC:s=-gnum	!	!	!	!
1C	-gnu(m)	2G/	-gnu(m)	2e\	-tis	2cc\	-tis
!	!	!	!LO:SIC:s=ae-	!	!	!	!
.	.	2G/	ę-	2.e\	re-	2.cc\	re-
=38-	=38-	=38-	=38-	=38-	=38-	=38-	=38-
!	!LO:SIC:s=ae-	!	!	!	!	!	!
1AA	ę-	1.A	-ter-	.	.	.	.
.	.	.	.	4d\	.	4b-\	.
*	*	*	*	*	*	*custos:a	*
*	*	*	*	*	*	*xywh-#633:4511,2841,3524,675	*
!	!	!	!	!	!	!LO:LB:g=original	!
.	.	.	.	4c/	.	4a\	.
.	.	.	.	4B-/	.	4g\	.
1D	-ter-	.	.	4A/	.	1f	.
.	.	.	.	4F/	.	.	.
.	.	2A/	-num	2.f\	.	.	.
=39-	=39-	=39-	=39-	=39-	=39-	=39-	=39-
!	!	!	!	!	!	!	!LO:SIC:s=-gnum
1C	-num	2.c\	et	.	.	1g	-gnu(m)
.	.	.	.	8e\	.	.	.
.	.	.	.	8d\	.	.	.
*	*	*	*	*custos:e	*	*	*
*	*	*	*	*xywh-#481:4493,2884,3487,681	*	*	*
!	!	!	!	!LO:LB:g=original	!	!	!
.	.	.	.	2e\	.	.	.
.	.	4c\	ac-	.	.	.	.
!	!	!	!	!	!LO:SIC:s=-gnum	!	!
2.F\	et	2c\	-ci-	0f	-gnu(m)	2.a\	et
.	.	2c\	-pi-	.	.	.	.
4F\	ac-	.	.	.	.	4a\	ac-
=40-	=40-	=40-	=40-	=40-	=40-	=40-	=40-
2F\	-ci-	0d	-e-	.	.	2a\	-ci-
2F\	-pi-	.	.	.	.	2a\	-pi-
1G	-e-	.	.	1r	.	1b-	-e-
=41-	=41-	=41-	=41-	=41-	=41-	=41-	=41-
2A\	-tis	1c	-tis	2.e\	et	0cc	-tis
2.c\	re-	.	.	.	.	.	.
.	.	.	.	4e\	ac-	.	.
.	.	4A\	re-	2e\	-ci-	.	.
4B-\	.	4B-\	.	.	.	.	.
4A\	.	4c\	.	2e\	-pi-	.	.
4G\	.	4B-\	.	.	.	.	.
=42-	=42-	=42-	=42-	=42-	=42-	=42-	=42-
4F\	.	4A\	.	1f	-e-	1r	.
4E\	.	4G/	.	.	.	.	.
2D/	.	2F/	.	.	.	.	.
!	!LO:SIC:s=-gnum	!	!LO:SIC:s=-gnum	!	!	!	!
1C	-gnu(m)	2c\	-gnu(m)	2g\	-tis	2.e/	et
!	!	!	!LO:SIC:s=ae-	!	!	!	!
.	.	2G/	ę-	2.c/	re-	.	.
.	.	.	.	.	.	4e/	ac-
*custos:AA	*	*	*	*	*	*	*
!LO:LB:g=original	!	!	!	!	!	!	!
=43-	=43-	=43-	=43-	=43-	=43-	=43-	=43-
*xywh-#177:4549,3403,3568,715	*	*	*	*	*	*	*
!	!LO:SIC:s=ae-	!	!	!	!	!	!
1AA	ę-	2.c\	-ter-	.	.	2e/	-ci-
.	.	.	.	4B-/	.	.	.
.	.	.	.	4A/	.	2e/	-pi-
.	.	4B-\	.	4G/	.	.	.
*	*	*custos:A	*	*	*	*	*
*	*	*xywh-#329:4497,3381,3526,653	*	*	*	*	*
!	!	!LO:LB:g=original	!	!	!	!	!
1D	-ter-	4A/	.	4F/	.	1f	-e-
.	.	4G/	.	4G/	.	.	.
.	.	1F/	.	4A/	.	.	.
.	.	.	.	4F/	.	.	.
=44-	=44-	=44-	=44-	=44-	=44-	=44-	=44-
1C	-num	.	.	2c/	.	1g	-tis
!	!	!	!LO:SIC:s=-num	!	!LO:SIC:s=-gnum	!	!
.	.	2E/	-nu(m)	2G/	-gnu(m)	.	.
*	*	*	*	*	*ij	*	*
1r	.	2.A/	et	2.c/	et	2r	.
.	.	.	.	.	.	2.cc\	re-
.	.	4A/	ac-	4c/	ac-	.	.
=45-	=45-	=45-	=45-	=45-	=45-	=45-	=45-
0r	.	2A/	-ci-	2c/	-ci-	.	.
.	.	.	.	.	.	4b-\	.
.	.	2A/	-pi-	2c/	-pi-	4a\	.
.	.	.	.	.	.	4g/	.
.	.	1B-	-e-	1d	-e-	4f/	.
.	.	.	.	.	.	4e/	.
*	*	*	*	*	*	*custos:f	*
*	*	*	*	*	*	*xywh-#633:4550,3361,3361,745	*
!	!	!	!	!	!	!LO:LB:g=original	!
.	.	.	.	.	.	4f/	.
.	.	.	.	.	.	4g/	.
=46-	=46-	=46-	=46-	=46-	=46-	=46-	=46-
2.AA/	et	2c\	-tis	2e\	-tis	4a\	.
.	.	.	.	.	.	4g/	.
*	*	*	*	*custos:a	*	*	*
*	*	*	*	*xywh-#481:4493,3417,3432,744	*	*	*
!	!	!	!	!LO:LB:g=original	!	!	!
.	.	2.c\	re-	2.a\	re-	2f/	.
4AA/	ac-	.	.	.	.	.	.
!	!	!	!	!	!	!	!LO:SIC:s=-gnum
2AA/	-ci-	.	.	.	.	2e/	gnu(m)
.	.	4B-\	.	4g\	.	.	.
!	!	!	!	!	!	!	!LO:SIC:s=ae-
2AA/	-pi-	4A/	.	4f\	.	2cc\	ę-
.	.	4G/	.	4e\	.	.	.
=47-	=47-	=47-	=47-	=47-	=47-	=47-	=47-
1BB-	-e-	4F/	.	1d	.	4b-\	-ter-
.	.	4E/	.	.	.	4a\	.
.	.	2D/	.	.	.	4g/	.
.	.	.	.	.	.	4f/	.
!	!	!	!LO:SIC:s=-gnum	!	!LO:SIC:s=-gnum	!	!
1C	-tis	1G	-gnu(m)	2c/	-gnu(m)	4e/	.
*	*	*	*	*	*Xij	*	*
.	.	.	.	.	.	4f/	.
!	!	!	!	!	!LO:SIC:s=ae-	!	!
.	.	.	.	2c/	ę-	4g/	.
.	.	.	.	.	.	4e/	.
=48-	=48-	=48-	=48-	=48-	=48-	=48-	=48-
*	*ij	*	*	*	*	*	*
2.F\	et	2.A/	et	1c	-ter-	1f	.
4F\	ac-	4A/	ac-	.	.	.	.
!	!	!	!	!	!	!	!LO:SIC:s=-num
2F\	-ci-	2A/	-ci-	1f	-num	1c	-nu(m)
2F\	-pi-	2A/	-pi-	.	.	.	.
=49-	=49-	=49-	=49-	=49-	=49-	=49-	=49-
1G	-e-	1B-	-e-	1r	.	1r	.
2A\	-tis	1F	-tis	2.c/	et	2.a\	et
*	*Xij	*	*	*	*	*	*
2.A\	re-	.	.	.	.	.	.
.	.	.	.	4c/	ac-	4a\	ac-
=50-	=50-	=50-	=50-	=50-	=50-	=50-	=50-
.	.	0F	re-	2c/	-ci-	2a\	-ci-
4G\	.	.	.	.	.	.	.
4F\	.	.	.	2c/	-pi-	2a\	-pi-
4E\	.	.	.	.	.	.	.
1D	.	.	.	1d	-e-	1b-	-e-
*	*	*custos:G	*	*	*	*	*
!	!	!LO:LB:g=original	!	!	!	!	!
=51-	=51-	=51-	=51-	=51-	=51-	=51-	=51-
*	*	*xywh-#329:4527,3880,3573,745	*	*	*	*	*
!	!LO:SIC:s=-gnum	!	!LO:SIC:s=-gnum	!	!	!	!
1C	-gnu(m)	2G/	-gnu(m)	2e\	-tis	2cc\	-tis
.	.	1E/	ae-	2.e\	re-	2.cc\	re-
1AA	ae-	.	.	.	.	.	.
.	.	.	.	4d\	.	4b-\	.
*	*	*	*	*	*	*custos:a	*
*	*	*	*	*	*	*xywh-#633:4527,3951,3447,675	*
!	!	!	!	!	!	!LO:LB:g=original	!
.	.	2.F/	-ter-	1c\	.	4a\	.
.	.	.	.	.	.	4g\	.
=52-	=52-	=52-	=52-	=52-	=52-	=52-	=52-
0A	-ter-	.	.	.	.	2f/	.
.	.	4G/	.	.	.	.	.
!	!	!	!	!	!LO:SIC:s=-gnum	!	!LO:SIC:s=-num
.	.	4A/	.	2c/	-gnu(m)	1e/	-gnu(m)
.	.	4B-\	.	.	.	.	.
.	.	2.c\	.	2e\	ae-	.	.
.	.	.	.	2.f\	-ter-	2c/	ae-
.	.	4A/	.	.	.	.	.
=53-	=53-	=53-	=53-	=53-	=53-	=53-	=53-
!	!	!LO:N:acc=#	!	!	!	!	!
0G	-num	2Bn\	.	.	.	1g	-ter-
.	.	.	.	4e\	.	.	.
.	.	2.c\	.	2e\	.	.	.
.	.	.	.	1d	-num	1g	-num
!	!	!LO:SIC:s=8Bi	!	!	!	!	!
.	.	8B-y\	.	.	.	.	.
.	.	8A\	.	.	.	.	.
!	!	!LO:N:acc=#	!	!	!	!	!
.	.	2Bn\	.	.	.	.	.
*custos:C	*	*	*	*custos:e	*	*	*
!LO:LB:g=original	!	!	!	!LO:LB:g=original	!	!	!
=54-	=54-	=54-	=54-	=54-	=54-	=54-	=54-
*M3/1	*	*M3/1	*	*M3/1	*	*M3/1	*
*met(O|3)	*	*met(O|3)	*	*met(O|3)	*	*met(O|3)	*
*xywh-#177:4533,3922,3458,754	*	*	*	*xywh-#481:4509,3965,3409,674	*	*	*
1C	Al-	[0.cl	num	1e	Al-	1g	Al-
1AA	-le-	.	.	1f	-le-	1a	-le-
1C	-lu-	.	.	1e	-lu-	1g	-lu-
=55-	=55-	=55-	=55-	=55-	=55-	=55-	=55-
2FF/	-ia	0c]	.	1.a	-ia	1.cc	-ia
2GG/	.	.	.	.	.	.	.
2AA/	.	.	.	.	.	.	.
2BB-/	.	.	.	4g\	.	4b-\	.
.	.	.	.	4f\	.	4a\	.
1C	.	1r	.	1e	.	1g	.
=56-	=56-	=56-	=56-	=56-	=56-	=56-	=56-
!	!LO:SIC:s=al-	!	!LO:SIC:s=al-	!	!LO:SIC:s=al-	!	!LO:SIC:s=al-
1F	Al-	1A	Al-	1c	Al-	1f	Al-
1D	-le-	1B-y	-le-	1d	-le-	1f	-le-
1F	-lu-	1A	-lu-	1c	-lu-	1f	-lu-
=57-	=57-	=57-	=57-	=57-	=57-	=57-	=57-
2BB-/	-ia	1.d	-ia	0B-	-ia	1.f	-ia
2C/	.	.	.	.	.	.	.
2D/	.	.	.	.	.	.	.
2E\	.	4c\	.	.	.	4e/	.
.	.	4B-\	.	.	.	4d/	.
1F	.	1A	.	1r	.	1c	.
=58-	=58-	=58-	=58-	=58-	=58-	=58-	=58-
*	*	*	*ij	*	*	*	*
!	!LO:SIC:s=al-	!	!LO:SIC:s=al-	!	!LO:SIC:s=al-	!	!LO:SIC:s=al-
1A	Al-	1c	Al-	1e	Al-	1cc	Al-
*	*	*	*	*	*	*custos:a	*
*	*	*	*	*	*	*xywh-#633:4511,4456,3532,877	*
!	!	!	!	!	!	!LO:LB:g=original	!
1F	-le-	1c	-le-	1f	-le-	1a	-le-
1A	-lu-	1c	-lu-	1e	-lu-	1a	-lu-
*	*	*custos:F	*	*	*	*	*
!	!	!LO:LB:g=original	!	!	!	!	!
=59-	=59-	=59-	=59-	=59-	=59-	=59-	=59-
*	*	*xywh-#329:4497,4472,3557,837	*	*	*	*	*
2D/	-ia	2F/	-ia	1.a	-ia	0f	-ia
2E\	.	2G/	.	.	.	.	.
2F\	.	2A/	.	.	.	.	.
2G\	.	2B-\	.	4g\	.	.	.
.	.	.	.	4f\	.	.	.
1A	.	1c	.	1e	.	1r	.
=60-	=60-	=60-	=60-	=60-	=60-	=60-	=60-
*	*ij	*	*	*	*	*	*
!	!LO:SIC:s=al-	!	!LO:SIC:s=al-	!	!LO:SIC:s=al-	!	!LO:SIC:s=al-
1D	Al-	1A	Al-	1f	Al-	1a	Al-
1BB-	-le-	1d	-le-	1f	-le-	1b-	-le-
1D	-lu-	1d	-lu-	1f	-lu-	1a	-lu-
*custos:GG	*	*	*	*custos:B	*	*	*
!LO:LB:g=original	!	!	!	!LO:LB:g=original	!	!	!
=61-	=61-	=61-	=61-	=61-	=61-	=61-	=61-
*xywh-#177:4533,4480,3473,895	*	*	*	*xywh-#481:4462,4506,3597,869	*	*	*
2GG/	-ia	0d	-ia	2B-/	-ia	1.dd	-ia
*	*Xij	*	*	*	*	*	*
2AA/	.	.	.	2c/	.	.	.
2BB-/	.	.	.	2d\	.	.	.
2C/	.	.	.	2e\	.	4cc\	.
.	.	.	.	.	.	4b-\	.
1D	.	1r	.	1f	.	1a	.
=62-	=62-	=62-	=62-	=62-	=62-	=62-	=62-
*	*	*	*	*	*ij	*	*ij
!	!LO:SIC:s=al-	!	!LO:SIC:s=al-	!	!LO:SIC:s=al-	!	!LO:SIC:s=al-
1F	Al-	1A	Al-	1c	Al-	1a	Al-
1D	-le-	1B-	-le-	1d	-le-	1f	-le-
1F	-lu-	1A	-lu-	1c	-lu-	1a	-lu-
=63-	=63-	=63-	=63-	=63-	=63-	=63-	=63-
2BB-/	-ia	1.d	-ia	1.f	-ia	1b-	-ia
2C/	.	.	.	.	.	.	.
!	!	!	!	!	!	!	!LO:SIC:s=al-
2D/	.	.	.	.	.	1.f	Al-
2E\	.	4c\	.	4e\	.	.	.
.	.	4B-\	.	4d\	.	.	.
1F	.	1A	.	1c	.	.	.
.	.	.	.	.	.	2g/	.
=64-	=64-	=64-	=64-	=64-	=64-	=64-	=64-
*	*ij	*	*	*	*	*	*
!	!LO:SIC:s=al-	!	!LO:SIC:s=al-	!	!LO:SIC:s=al-	!	!
0FF	Al-	0A	Al-	0c	Al-	1.a	.
.	.	.	.	.	.	4g/	.
.	.	.	.	.	.	4f/	.
1AA	-le-	1A	-le-	1c	-le-	1e	.
=65-	=65-	=65-	=65-	=65-	=65-	=65-	=65-
1AA	-le-	1A	-lu-	1c	-lu-	0f	-le-
0C	-ia	0G	-ia	0c	-ia	.	.
.	.	.	.	.	.	1e	-lu-
=66-	=66-	=66-	=66-	=66-	=66-	=66-	=66-
!	!LO:SIC:s=al-	!	!LO:SIC:s=al-	!	!LO:SIC:s=al-	!	!LO:SIC:s=-ia.
1F	Al-	1A	Al-	1c	Al-	[0.fl	-ia
*	*	*	*	*	*	*	*Xij
1D	-le-	1B-	-le-	1d	-le-	.	.
1F	-lu-	1A	-lu-	1c	-lu-	.	.
=67-	=67-	=67-	=67-	=67-	=67-	=67-	=67-
2BB-/	-ia	1.d	-ia	1.f	-ia	0.f_	.
2C/	.	.	.	.	.	.	.
2D/	.	.	.	.	.	.	.
2E\	.	4c\	.	4e\	.	.	.
.	.	4B-\	.	4d\	.	.	.
1F	.	1A	.	1c	.	.	.
=68-	=68-	=68-	=68-	=68-	=68-	=68-	=68-
*col	*	*col	*	*col	*	*	*
!	!LO:SIC:s=al-	!	!LO:SIC:s=al-	!	!LO:SIC:s=al-	!	!
0FF	Al-	0c	Al-	0A	Al-	0.f_	.
0AA	-le-	0c	-le-	0A	-le-	.	.
=69-	=69-	=69-	=69-	=69-	=69-	=69-	=69-
.	.	.	.	.	.	0.f_	.
0BB-	-lu-	0B-	-lu-	0d	-lu-	.	.
*Xcol	*	*Xcol	*	*Xcol	*	*	*
=70-	=70-	=70-	=70-	=70-	=70-	=70-	=70-
!	!LO:SIC:s=-ia.	!	!LO:SIC:s=-ia.	!	!LO:SIC:s=-ia.	!	!
0.FFl	-ia	0.Al	-ia	0.cl	-ia	0.f]	.
*	*Xij	*	*Xij	*	*Xij	*	*
==	==	==	==	==	==	==	==
*-	*-	*-	*-	*-	*-	*-	*-
!!!system-decoration: [*]
!!LO:MO:ori
!!!RDF**kern: l = terminal long
!!LO:MO:mod
!! !!!RDF**kern: i = editorial accidental
!!LO:MO:end
!!!filter-modern: shed -e "s/^custos:/Xcustos:/I" | shed -e "s/LO:N:/LO:n:$1/L" | shed -e "s/TX(.*):t=P:/tx$1:t=P:/LG" | sic -sq | modori -m | autostem -r | tie -s | humtr -p | shed -e "s/-//B" | autobeam
!!!ENC: Marta Opryszak
!!!END: 2022-07-05
!!!EED: Andrzej Kubiczek
!!!EEV: 2025-02-26
!!!ENC-modern: Andrzej Kubiczek
!!!END-modern: 2025-02-26
!!!ENC-iiif: Lidia Bialucha
!!!END-iiif: 2022-09-12
